X: 85
T:Wallace Twins (#281), The
M:4/4
L:1/8
S:Rice-Walsh manuscript
R:Reel
K:G
BGAF G2 AF|DEFG AGGF|1DGGF GABc|d2 eg fdcA:|2DGGF GABg|fdcA BG G2||
g2 ag fgag|fdde fdcA|Gggf g2 fg|agfg agga|
bgaf gbag|fdde f2 fg|afge (3fga ge|dcde fdcA||

